packages/bezier-icons/icons/chat-error.svg

<svg width="24" height="24" viewBox="0 0 24 24" fill="none" xmlns="http://www.w3.org/2000/svg">
<path fill-rule="evenodd" clip-rule="evenodd" d="M19.0613 15.7472C18.7183 16.3912 18.6493 17.1072 18.8683 17.7642L19.4193 19.4192L17.7643 18.8672C17.1063 18.6482 16.3923 18.7172 15.7483 19.0602C14.2393 19.8662 12.5333 20.1622 10.8223 19.9152C7.41029 19.4222 4.64829 16.7132 4.10729 13.3272C3.69129 10.7232 4.50829 8.17518 6.35029 6.33818C7.87229 4.81818 9.87729 4.00018 11.9993 4.00018C12.4433 4.00018 12.8943 4.03618 13.3453 4.10918C16.5803 4.63318 19.1883 7.14318 19.8343 10.3542C20.2123 12.2292 19.9443 14.0942 19.0613 15.7472ZM20.7653 17.1322C20.7073 16.9552 20.7783 16.7792 20.8253 16.6892C21.9303 14.6222 22.2653 12.2952 21.7953 9.96018C20.9853 5.93518 17.7183 2.79118 13.6643 2.13518C10.4213 1.61118 7.2383 2.62518 4.9363 4.92218C2.6363 7.21818 1.6133 10.3972 2.1323 13.6432C2.8103 17.8842 6.2663 21.2782 10.5363 21.8942C11.0263 21.9652 11.5153 22.0002 12.0003 22.0002C13.6363 22.0002 15.2353 21.6022 16.6913 20.8242C16.7803 20.7772 16.9573 20.7072 17.1313 20.7652L19.7363 21.6332C20.2763 21.8112 20.8663 21.6752 21.2713 21.2702C21.6753 20.8662 21.8143 20.2782 21.6333 19.7352L20.7653 17.1322ZM11.9333 15.5953C11.2033 15.5953 10.6113 16.1873 10.6113 16.9183C10.6113 17.6483 11.2033 18.2403 11.9333 18.2403C12.6633 18.2403 13.2563 17.6483 13.2563 16.9183C13.2563 16.1873 12.6633 15.5953 11.9333 15.5953ZM13.1473 5.97989L13.0143 13.9869H10.8523L10.7203 5.97989H13.1473Z" fill="#313234"/>
</svg>

<svg xmlns="http://www.w3.org/2000/svg" width="24" height="24" fill="none" viewBox="0 0 24 24"><path fill="#313234" fill-rule="evenodd" d="M19.061 15.747c-.343.644-.412 1.36-.193 2.017l.551 1.655-1.655-.552c-.658-.219-1.372-.15-2.016.193a7.97 7.97 0 0 1-4.926.855c-3.412-.493-6.174-3.202-6.715-6.588-.416-2.604.401-5.152 2.243-6.989A7.93 7.93 0 0 1 12 4c.443 0 .894.036 1.345.11a7.945 7.945 0 0 1 6.49 6.244c.377 1.875.11 3.74-.774 5.393m1.704 1.385c-.058-.177.013-.353.06-.443 1.105-2.067 1.44-4.394.97-6.729-.81-4.025-4.077-7.169-8.13-7.825-3.244-.524-6.427.49-8.729 2.787-2.3 2.296-3.323 5.475-2.804 8.721.678 4.241 4.134 7.635 8.404 8.251Q11.272 22 12 22a9.9 9.9 0 0 0 4.691-1.176c.09-.047.266-.117.44-.059l2.605.868c.54.178 1.13.042 1.535-.363.404-.404.543-.992.362-1.535zm-8.832-1.537a1.322 1.322 0 1 0 .001 2.645 1.322 1.322 0 0 0 0-2.645m1.214-9.615-.133 8.007h-2.162L10.72 5.98z" clip-rule="evenodd"/></svg>
